X: 8601
T: Cronin's
R: hornpipe
M: 4/4
K: Gmajor
|:(3cBA|G>AB>d d>Bd>e|g>ag>e d>eg>a|b>ag>e d>BG>A|B>AA>G (3ABc B>A|
G>AB>d d>Bd>e|g>ag>e d>eg>a|b>ag>e d>B (3A^AB|(3GAG (3FGA G2:|
|:f>g|a>fd>c d>eg>a|b>ge>d e>fg>a|b>ga>f g>ed>B|B>AA>G (3ABc B>A|
G>AB>d d>Bd>e|g>ag>e d>eg>a|b>ag>e d>B (3A^AB|(3GAG (3FGA G2:|

